client/country-flags/russia-flag.svg

<?xml version="1.0" encoding="UTF-8" standalone="no"?>
<svg width="40px" height="40px" viewBox="0 0 40 40" version="1.1" xmlns="http://www.w3.org/2000/svg" xmlns:xlink="http://www.w3.org/1999/xlink" xmlns:sketch="http://www.bohemiancoding.com/sketch/ns">
    <!-- Generator: Sketch 3.3.3 (12081) - http://www.bohemiancoding.com/sketch -->
    <title>russia-flag</title>
    <desc>Created with Sketch.</desc>
    <defs>
        <path id="path-1" d="M-1.66977543e-13,21.5423613 C0.797471037,31.8691678 9.43339924,40 19.9699549,40 C31.0325488,40 40,31.037037 40,19.97998 C40,9.35173039 31.7146014,0.658300861 21.2471674,3.55271368e-14 L18.6927424,3.55271368e-14 C8.74312794,0.625735001 0.765000011,8.51127386 5.6575064e-14,18.4175986 L5.64499763e-14,21.5423613 L-1.66977543e-13,21.5423613 Z"></path>
    </defs>
    <g id="Page-1" stroke="none" stroke-width="1" fill="none" fill-rule="evenodd" sketch:type="MSPage">
        <g id="Mobile--rates-explained-Copy" sketch:type="MSArtboardGroup" transform="translate(-102.000000, -2033.000000)">
            <g id="russia-flag" sketch:type="MSLayerGroup" transform="translate(102.000000, 2033.000000)">
                <mask id="mask-2" sketch:name="Clip 2" fill="white">
                    <use xlink:href="#path-1"></use>
                </mask>
                <g id="Clip-2"></g>
                <path d="M5.32907052e-14,3.55271368e-14 L40,3.55271368e-14 L40,13 L5.32907052e-14,13 L5.32907052e-14,3.55271368e-14 Z" id="Fill-1" fill="#FFFFFF" sketch:type="MSShapeGroup" mask="url(#mask-2)"></path>
                <path d="M5.32907052e-14,13 L40,13 L40,27 L5.32907052e-14,27 L5.32907052e-14,13 Z" id="Fill-3" fill="#1D80D5" sketch:type="MSShapeGroup" mask="url(#mask-2)"></path>
                <path d="M5.32907052e-14,27 L40,27 L40,40 L5.32907052e-14,40 L5.32907052e-14,27 Z" id="Fill-4" fill="#E94B37" sketch:type="MSShapeGroup" mask="url(#mask-2)"></path>
            </g>
        </g>
    </g>
</svg>

<svg xmlns="http://www.w3.org/2000/svg" width="40" height="40" viewBox="0 0 40 40" xmlns:xlink="http://www.w3.org/1999/xlink">
  <defs>
    <path id="a" d="M0 21.542C.797 31.87 9.433 40 19.97 40 31.033 40 40 31.037 40 19.98 40 9.352 31.715.658 21.247 0h-2.554C8.743.626.765 8.51 0 18.418v3.124z"/>
  </defs>
  <g fill="none" fill-rule="evenodd">
    <mask id="b" fill="#fff">
      <use xlink:href="#a"/>
    </mask>
    <path fill="#FFF" d="M0 0h40v13H0V0z" mask="url(#b)"/>
    <path fill="#1D80D5" d="M0 13h40v14H0V13z" mask="url(#b)"/>
    <path fill="#E94B37" d="M0 27h40v13H0V27z" mask="url(#b)"/>
  </g>
</svg>
